X:1
T:E minor         Jeremiah Ingalls, 1805
T:Charles Wesley, 1749 An Hymn for Seriousness        886. 886.
T:Born to Die
T:Treble-Tenor-Bass Transcribed from Ingalls' Christian Harmony , 1805 ; Counter by B. C. Johnston, 2017.
%%score [ 1 2 3 4 ]
L:1/8
Q:1/4=120
M:6/4
K:G
V:1 treble nm="Tr." snm="Tr."
V:2 treble nm="C." snm="C."
V:3 treble-8 nm="T." snm="T."
V:4 bass nm="B." snm="B."
V:1
"^1.  Thou  God  of  glo–rious  ma-jes-ty,      To     thee  against  myself,    to  thee    A     worm   of   earth   I    cry,                           An\n2.  Lo!       on   a  narrow neck  of  land,     ’Twixt two unbounded seas I stand    Se – cure,   in – sen – si – ble:                         A" e6 | %1
 d4 d2 (e2 d2) B2 | B4 B2 B4 B2 | (G2 A2) B2 e4 e2 | (A2 B2) c2 d4 c2 | (B2 A2) B2 c4 B2 | B12 |: %7
 z4 z2 B6 | %8
"^1.  half-awakened  child of man,        An  heir  of  endless  bliss  or  pain,   A   sin –ner  born  to    die.\n2.  point of life, a moment’s space     Removes me to that heavenly place,  Or  shuts  me  up  in   hell." B4 d2 d4 B2 | %9
 (A2 G2) A2 B6- | B6 B6 | e4 e2 e4 e2 | (A2 B2) c2 d4 c2 | (B2 A2) B2 c4 B2 | B12 :| %15
V:2
"^3.  O  God,  mine  inmost  soul  convert,   And deeply on my thoughtful heart   E–ter–nal  things  im – press,                       Give\n4.  Before me place in dread array   The pomp of that tremendous day,  When thou with clouds shalt come                        To" B6 | %1
 B4 A2 (B2 A2) G2 | B4 ^d2 B4 E2 | (B2 A2) B2 c4 B2 | (A2 B2) F2 D4 D2 | (G2 A2) G2 E4 ^D2 | E12 |: %7
 z4 z2 E6 | %8
"^3.  me to feel their solemn weight,      And tremble on the brink of fate,  And wake to righteousness.\n4.  judge  the  na–tions  at  thy  bar:    And tell me, Lord, shall I be there  To  meet   a  joy – ful doom?" E4 F2 G4 B2 | %9
 A4 A2 B6- | B6 E6 | E4 E2 E4 E2 | (A2 B2) A2 B4 c2 | (B2 A2) G2 A4 ^D2 | E12 :| %15
V:3
"^5.  Be  this  my  one great business here,  With  serious  in–dus–try,  and  fear,   My  fu – ture bliss  t’en–sure,                   Thine\n6.  Then,  Sa–vior, then my soul receive,   Trans–por–ted from the vale, to live   And  reign  with  thee  above,                 Where" B6 | %1
 B4 A2 (G2 A2) B2 | ^d4 d2 d4 e2 | B4 B2 c4 B2 | (A2 G2) A2 B4 A2 | (G2 A2) B2 e4 ^d2 | e12 |: %7
 z4 z2 B6 | %8
"^5.  utmost  counsel  to  fulfill, ______  And  suffer  all  thy  righteous  will,  And  to   the  end  en–dure.\n6.  faith is sweetly lost in sight,  ___   And  hope in full supreme delight,   And e – ver–las–ting    love." e4 f2 g4 B2 | %9
 d4 d2 d6- | d6 e6 | B4 B2 c4 B2 | (A2 G2) A2 B4 A2 | (G2 A2) B2 e4 ^d2 | e12 :| %15
V:4
 E,6 | G,4 F,2 (E,2 D,2) E,2 | B,,4 B,,2 B,,4 E,2 | E,4 E,2 E,4 E,2 | F,4 F,2 B,,4 D,2 | %5
 (E,2 F,2) G,2 A,4 B,2 | E,12 |: z4 z2 E,6 | E,4 D,2 G,4 G,2 | D,4 D,2 G,6- | G,6 E,6 | %11
 E,4 E,2 E,4 E,2 | F,4 F,2 B,,4 D,2 | (E,2 F,2) G,2 A,4 B,2 | E,12 :| %15

